X:1957
T:Fill The Tankard
O:england
M:6/8
L:1/8
S:Armitt MS
N:There's a lot of blotting from another page, and the writer seems to
N:have had a few problems with his pe
K:F major
:fgf|e2cd2e|f2a gec|d2e fgf|A2f dcB|A2GF2:||:a2fd2f|agf g2e|c2e gfe|f2ed
2f|fga g2e|cde f3:||
